!!!SOCIAL_FUNCTION:	songs of social dances
!!!PDT:	1958
!!!OTL: No_30_Dream_Dance_Song.krn
!!!REG: Northern California
!!!LANG: Non-Tone
!!!LING_GROUP: Penutian
**kern
*staff1
=1-
*clefF4
*k[f#c#g#d#]
*M2/4
8E\L
16G#\L
16G#\JJ
8G#\L
16F#\L
16F#\JJ
=2
16G#\LK
8G#\
16F#\Jk
16F#\LL
16F#\JJ
8r
=3
8G#\L
16B\L
16G#\JJ
8G#\L
16F#\L
16E\JJ
=4
16F#\LK
8F#\
16E\Jk
16C#/LL
16C#/JJ
8r
=5
16F#\LL
16F#\J
8F#\J
8G#\L
8F#\J
=6
16G#\LK
8G#\
16F#\Jk
16F#\LL
16F#\JJ
8r
=7
8G#\L
16B\L
16G#\JJ
8G#\L
16F#\L
16E\JJ
=8
16F#\LK
8F#\
16E\Jk
16C#/LL
16C#/JJ
8r
=9
16G#\LL
16G#\J
8G#\J
8G#\L
8F#\J
=10
16G#\LL
16G#\J
8F#\J
16F#\LL
16F#\JJ
8r
=11
32G#\LLK
16.G#\
16.B\
32G#\JJk
8G#\L
16F#\L
16E\JJ
=12
16F#\LK
8F#\
16F#\Jk
8F#\L
16F#\Jk
16r
=13
32G#\LLK
16.G#\
16.B\
32G#\JJk
8G#\L
16F#\L
16E\JJ
=14
16F#\LK
8F#\
16E\Jk
8C#/L
16C#/Jk
16r
=15
8F#\L
16F#\L
16F#\JJ
8G#\L
16F#\L
16F#\JJ
=16
8.G#\L
16F#\Jk
8F#\L
16F#\Jk
16r
=17
8G#\L
16.B\L
32G#\JJk
8G#\L
16F#\L
16E\JJ
=18
8.F#\L
16E\Jk
8C#/L
16C#/Jk
16r
=19
8F#\L
16F#\L
16F#\JJ
8G#\L
16F#\L
16F#\JJ
=20
8.G#\L
16F#\Jk
16F#\LL
16F#\JJ
8r
=21
32G#\LLK
16.G#\
16.B\
32G#\JJk
8G#\L
16F#\L
16E\JJ
=22
16F#\LK
8F#\
16F#\Jk
16F#\LL
16F#\JJ
8r
=23
32G#\LLK
16.G#\
16.B\
32G#\JJk
8G#\L
16F#\L
16E\JJ
=24
16F#\LK
8F#\
16E\Jk
8C#/L
16C#/Jk
16r
==
*-
